X: 1
T: The Hare    [D]
O: Qu\'ebec
R: reel
S: Debbie Knight, Sep 2015 RJ
Z: 2015 John Chambers <jc:trillian.mit.edu>
M: C|
L: 1/8
K: D
   BAF |\
"D"DFAd  "G"(3BdB AG | "A7"FABc  "D"dcd2 |\
"D"DFAd "Bm"(3BdB AF | "Em"BFAF "A7"EGFE |
"D"DFAd  "G"(3BdB AG | "A7"FABc  "D"dcde |\
"D"~f2fa  "G(Em)"gfed | "A7"cABc  "D"d   :|
|: efg |\
 "D"a2fd Adfa | "Em"g2ec "A7"Acef |\
"A7"gece aece | "A7"bgec  "D"defg |
 "D"a2fd Adfa | "Em"g2ec "A7"Acef |\
"A7"gece aece | "A7"bgec  "D"d   :|


